X:1
T:Der am Kreuz, 87.87.77.88
T:Johann Balthasar König, 1738
T:Der am Kreuz, 87.87.77.88
T:Public Domain
C:Johann Balthasar K&#246;nig, 1738
Z:Public Domain
%%score ( 1 2 ) ( 3 4 )
L:1/8
M:4/4
K:C
V:1 treble 
V:2 treble 
V:3 bass 
V:4 bass 
V:1
 [EA]2 E2 [DA]2 [FB]2 | [Ec]2 (BA) [E^G]2 E2 | [EB]2 [Ec]2 [Fd]2 [Ec]2 | [EB]2 [EB]2 [CA]4 | %4
 [EA]2 E2 [DA]2 [FB]2 | [Ec]2 (BA) [E^G]2 E2 | [EB]2 [Ec]2 [Fd]2 [Ec]2 | [EB]2 [EB]2 [CA]4 | %8
 [CG]2 [CG]2 [DG]2 [CE]2 | (CD) [EG]2 [FA]4 | [EG]2 [CG]2 [CF]2 [CE]2 | [CD]2 [B,D]2 C4 | %12
 [Ec]2 [Ac]2 [AB]2 [GB]2 | [FA]2 [FB]2 [E^G]2 E2 | [EB]2 [Ec]2 [Fd]2 [Ec]2 | [EB]2 [Ec]2 [EB]4 | %16
 [^CA]6 |] %17
V:2
 x2 E2 x4 | x2 F2 x E2 x | x8 | x8 | x2 E2 x4 | x2 F2 x E2 x | x8 | x8 | x8 | F2 x6 | x8 | x4 C4 | %12
 x8 | x6 E2 | x8 | x8 | x6 |] %17
V:3
 [A,C]2 [G,B,]2 [F,A,]2 [D,D]2 | [A,,C]2 (DC) [E,B,]2 [E,^G,]2 | [E,^G,]2 A,2 [D,A,]2 [A,,A,]2 | %3
 [E,A,]2 [E,^G,]2 [A,,A,]4 | [A,C]2 [G,B,]2 [F,A,]2 [D,D]2 | [A,,C]2 (DC) [E,B,]2 [E,^G,]2 | %6
 [E,^G,]2 A,2 [D,A,]2 [A,,A,]2 | [E,A,]2 [E,^G,]2 [A,,A,]4 | [C,E,]2 [C,E,]2 [B,,G,]2 [C,G,]2 | %9
 [A,,A,]2 [G,,_B,]2 [F,,C]4 | [C,C]2 [E,G,]2 [F,A,]2 [C,G,]2 | [G,,G,]2 [G,,G,]2 [C,E,]4 | %12
 [A,,A,]2 [A,,E]2 [E,E]2 (ED) | [F,C]2 [D,D]2 [E,B,]2 [E,^G,]2 | [E,^G,]2 A,2 [D,A,]2 [A,,A,]2 | %15
 [E,^G,]2 (C,A,,) (A,2 G,2) | [A,,A,]6 |] %17
V:4
 x8 | x2 D,2 x4 | x2 A,2 x4 | x8 | x8 | x2 D,2 x4 | x2 A,2 x4 | x8 | x8 | x8 | x8 | x8 | x6 E,2 | %13
 x8 | x2 A,2 x4 | x2 A,2 E,4 | x6 |] %17

